saahu27/vamp/solution/BiEST.csv
joint_1,joint_2,joint_3,joint_4,joint_5,joint_6,joint_7
0.000000,-0.785000,0.000000,-2.356000,0.000000,1.571000,0.785000
-0.119260,-0.753861,-0.011230,-2.303592,-0.121705,1.522682,0.666172
-0.238520,-0.722722,-0.022461,-2.251184,-0.243410,1.474363,0.547344
-0.357781,-0.691583,-0.033691,-2.198776,-0.365115,1.426045,0.428515
-0.477041,-0.660444,-0.044922,-2.146369,-0.486820,1.377726,0.309687
-0.596301,-0.629305,-0.056152,-2.093961,-0.608525,1.329408,0.190859
-0.715561,-0.598166,-0.067382,-2.041553,-0.730229,1.281090,0.072031
-0.834821,-0.567027,-0.078613,-1.989145,-0.851934,1.232771,-0.046798
-0.954082,-0.535888,-0.089843,-1.936737,-0.973639,1.184453,-0.165626
-1.073342,-0.504749,-0.101073,-1.884329,-1.095344,1.136134,-0.284454
-1.192602,-0.473610,-0.112304,-1.831921,-1.217049,1.087816,-0.403282
-1.311862,-0.442471,-0.123534,-1.779514,-1.338754,1.039497,-0.522110
-1.431122,-0.411332,-0.134765,-1.727106,-1.460459,0.991179,-0.640939
-1.550382,-0.380193,-0.145995,-1.674698,-1.582164,0.942861,-0.759767
-1.669643,-0.349054,-0.157225,-1.622290,-1.703869,0.894542,-0.878595
-1.788903,-0.317915,-0.168456,-1.569882,-1.825574,0.846224,-0.997423
-1.908163,-0.286776,-0.179686,-1.517474,-1.947279,0.797905,-1.116251
-2.027423,-0.255637,-0.190917,-1.465066,-2.068983,0.749587,-1.235080
-2.146683,-0.224498,-0.202147,-1.412659,-2.190688,0.701269,-1.353908
-2.265944,-0.193359,-0.213377,-1.360251,-2.312393,0.652950,-1.472736
-2.385204,-0.162220,-0.224608,-1.307843,-2.434098,0.604632,-1.591564
-2.235363,-0.238658,-0.280812,-1.296147,-2.359250,0.619359,-1.611369
-2.085522,-0.315096,-0.337017,-1.284452,-2.284402,0.634087,-1.631174
-1.935681,-0.391534,-0.393221,-1.272756,-2.209555,0.648814,-1.650979
-1.785840,-0.467972,-0.449426,-1.261060,-2.134707,0.663541,-1.670784
-1.636000,-0.544411,-0.505630,-1.249365,-2.059859,0.678269,-1.690589
-1.486159,-0.620849,-0.561835,-1.237669,-1.985011,0.692996,-1.710394
-1.336318,-0.697287,-0.618039,-1.225973,-1.910163,0.707724,-1.730199
-1.186477,-0.773725,-0.674244,-1.214278,-1.835316,0.722451,-1.750004
-1.036636,-0.850164,-0.730448,-1.202582,-1.760468,0.737178,-1.769809
-0.886795,-0.926602,-0.786653,-1.190887,-1.685620,0.751906,-1.789614
-0.736954,-1.003040,-0.842857,-1.179191,-1.610772,0.766633,-1.809418
-0.587114,-1.079478,-0.899062,-1.167495,-1.535924,0.781360,-1.829223
-0.437273,-1.155916,-0.955266,-1.155800,-1.461076,0.796088,-1.849028
-0.287432,-1.232355,-1.011471,-1.144104,-1.386229,0.810815,-1.868833
-0.137591,-1.308793,-1.067675,-1.132408,-1.311381,0.825543,-1.888638
0.012250,-1.385231,-1.123880,-1.120713,-1.236533,0.840270,-1.908443
0.162091,-1.461669,-1.180084,-1.109017,-1.161685,0.854997,-1.928248
0.311931,-1.538108,-1.236289,-1.097321,-1.086837,0.869725,-1.948053
0.461772,-1.614546,-1.292493,-1.085626,-1.011990,0.884452,-1.967858
0.611613,-1.690984,-1.348698,-1.073930,-0.937142,0.899180,-1.987663
0.679049,-1.674093,-1.385526,-1.066479,-0.958841,0.881716,-1.972800
0.746484,-1.657202,-1.422354,-1.059028,-0.980540,0.864252,-1.957937
0.813920,-1.640311,-1.459182,-1.051577,-1.002239,0.846788,-1.943074
0.881356,-1.623421,-1.496009,-1.044126,-1.023939,0.829325,-1.928211
0.948791,-1.606530,-1.532837,-1.036675,-1.045638,0.811861,-1.913348
1.016227,-1.589639,-1.569665,-1.029224,-1.067337,0.794397,-1.898485
1.083663,-1.572748,-1.606493,-1.021772,-1.089037,0.776933,-1.883622
1.151098,-1.555857,-1.643321,-1.014321,-1.110736,0.759470,-1.868759
1.218534,-1.538966,-1.680149,-1.006870,-1.132435,0.742006,-1.853896
1.285969,-1.522076,-1.716977,-0.999419,-1.154134,0.724542,-1.839034
1.353405,-1.505185,-1.753804,-0.991968,-1.175834,0.707078,-1.824171
1.420841,-1.488294,-1.790632,-0.984517,-1.197533,0.689615,-1.809308
1.488276,-1.471403,-1.827460,-0.977066,-1.219232,0.672151,-1.794445
1.555712,-1.454512,-1.864288,-0.969615,-1.240931,0.654687,-1.779582
1.623148,-1.437621,-1.901116,-0.962164,-1.262631,0.637223,-1.764719
1.690583,-1.420731,-1.937944,-0.954713,-1.284330,0.619760,-1.749856
1.758019,-1.403840,-1.974772,-0.947261,-1.306029,0.602296,-1.734993
1.825454,-1.386949,-2.011599,-0.939810,-1.327728,0.584832,-1.720130
1.892890,-1.370058,-2.048427,-0.932359,-1.349428,0.567368,-1.705267
1.960326,-1.353167,-2.085255,-0.924908,-1.371127,0.549905,-1.690404
1.979809,-1.235509,-1.980992,-0.918663,-1.302570,0.647409,-1.566634
1.999293,-1.117851,-1.876730,-0.912417,-1.234014,0.744914,-1.442864
2.018777,-1.000192,-1.772467,-0.906172,-1.165458,0.842419,-1.319094
2.038261,-0.882534,-1.668204,-0.899927,-1.096901,0.939924,-1.195324
2.057744,-0.764875,-1.563941,-0.893681,-1.028345,1.037428,-1.071553
2.077228,-0.647217,-1.459679,-0.887436,-0.959789,1.134933,-0.947783
2.096712,-0.529559,-1.355416,-0.881190,-0.891232,1.232438,-0.824013
2.116195,-0.411900,-1.251153,-0.874945,-0.822676,1.329943,-0.700243
2.135679,-0.294242,-1.146890,-0.868700,-0.754120,1.427447,-0.576472
2.155163,-0.176584,-1.042628,-0.862454,-0.685563,1.524952,-0.452702
2.174647,-0.058925,-0.938365,-0.856209,-0.617007,1.622457,-0.328932
2.194130,0.058733,-0.834102,-0.849963,-0.548451,1.719962,-0.205162
2.213614,0.176391,-0.729839,-0.843718,-0.479894,1.817467,-0.081392
2.233098,0.294050,-0.625577,-0.837472,-0.411338,1.914971,0.042379
2.252581,0.411708,-0.521314,-0.831227,-0.342782,2.012476,0.166149
2.272065,0.529367,-0.417051,-0.824982,-0.274225,2.109981,0.289919
2.291549,0.647025,-0.312788,-0.818736,-0.205669,2.207486,0.413689
2.311032,0.764683,-0.208526,-0.812491,-0.137113,2.304990,0.537460
2.330516,0.882342,-0.104263,-0.806245,-0.068556,2.402495,0.661230
2.350000,1.000000,0.000000,-0.800000,0.000000,2.500000,0.785000
