saahu27/vamp/solution/BiTRRT.csv
joint_1,joint_2,joint_3,joint_4,joint_5,joint_6,joint_7
0.000000,-0.785000,0.000000,-2.356000,0.000000,1.571000,0.785000
0.002720,-0.773567,-0.006326,-2.336053,-0.011714,1.566272,0.789395
0.005439,-0.762134,-0.012651,-2.316106,-0.023428,1.561543,0.793790
0.008159,-0.750700,-0.018977,-2.296158,-0.035143,1.556815,0.798185
0.010879,-0.739267,-0.025303,-2.276211,-0.046857,1.552087,0.802580
0.013598,-0.727834,-0.031628,-2.256264,-0.058571,1.547358,0.806975
0.016318,-0.716401,-0.037954,-2.236317,-0.070285,1.542630,0.811370
0.019037,-0.704967,-0.044279,-2.216370,-0.082000,1.537902,0.815764
0.021757,-0.693534,-0.050605,-2.196422,-0.093714,1.533173,0.820159
0.024477,-0.682101,-0.056931,-2.176475,-0.105428,1.528445,0.824554
0.027196,-0.670668,-0.063256,-2.156528,-0.117142,1.523717,0.828949
0.029916,-0.659234,-0.069582,-2.136581,-0.128857,1.518988,0.833344
0.032636,-0.647801,-0.075908,-2.116634,-0.140571,1.514260,0.837739
0.035355,-0.636368,-0.082233,-2.096686,-0.152285,1.509532,0.842134
0.038075,-0.624935,-0.088559,-2.076739,-0.163999,1.504803,0.846529
0.040794,-0.613501,-0.094884,-2.056792,-0.175714,1.500075,0.850924
0.043514,-0.602068,-0.101210,-2.036845,-0.187428,1.495347,0.855319
0.046234,-0.590635,-0.107536,-2.016898,-0.199142,1.490618,0.859714
0.048953,-0.579202,-0.113861,-1.996950,-0.210856,1.485890,0.864109
0.051673,-0.567768,-0.120187,-1.977003,-0.222570,1.481162,0.868504
0.054393,-0.556335,-0.126513,-1.957056,-0.234285,1.476433,0.872899
0.066767,-0.563303,-0.138230,-1.940888,-0.244767,1.470177,0.870548
0.079141,-0.570270,-0.149948,-1.924720,-0.255249,1.463921,0.868197
0.091515,-0.577238,-0.161666,-1.908552,-0.265731,1.457664,0.865847
0.103889,-0.584206,-0.173383,-1.892385,-0.276214,1.451408,0.863496
0.116263,-0.591173,-0.185101,-1.876217,-0.286696,1.445152,0.861146
0.128638,-0.598141,-0.196819,-1.860049,-0.297178,1.438896,0.858795
0.141012,-0.605109,-0.208537,-1.843881,-0.307660,1.432639,0.856445
0.153386,-0.612077,-0.220254,-1.827713,-0.318142,1.426383,0.854094
0.165760,-0.619044,-0.231972,-1.811545,-0.328625,1.420127,0.851744
0.178134,-0.626012,-0.243690,-1.795377,-0.339107,1.413870,0.849393
0.190508,-0.632980,-0.255407,-1.779210,-0.349589,1.407614,0.847043
0.202883,-0.639947,-0.267125,-1.763042,-0.360071,1.401358,0.844692
0.215257,-0.646915,-0.278843,-1.746874,-0.370553,1.395102,0.842342
0.227631,-0.653883,-0.290561,-1.730706,-0.381036,1.388845,0.839991
0.240005,-0.660850,-0.302278,-1.714538,-0.391518,1.382589,0.837641
0.252379,-0.667818,-0.313996,-1.698370,-0.402000,1.376333,0.835290
0.264753,-0.674786,-0.325714,-1.682202,-0.412482,1.370077,0.832939
0.277128,-0.681753,-0.337431,-1.666035,-0.422964,1.363820,0.830589
0.289502,-0.688721,-0.349149,-1.649867,-0.433447,1.357564,0.828238
0.301876,-0.695689,-0.360867,-1.633699,-0.443929,1.351308,0.825888
0.285891,-0.701259,-0.375259,-1.629025,-0.443652,1.336033,0.823438
0.269906,-0.706829,-0.389652,-1.624351,-0.443375,1.320759,0.820989
0.253921,-0.712399,-0.404044,-1.619678,-0.443098,1.305485,0.818539
0.237936,-0.717970,-0.418436,-1.615004,-0.442821,1.290210,0.816089
0.221951,-0.723540,-0.432829,-1.610330,-0.442544,1.274936,0.813640
0.205966,-0.729110,-0.447221,-1.605657,-0.442266,1.259661,0.811190
0.189981,-0.734680,-0.461614,-1.600983,-0.441989,1.244387,0.808741
0.173996,-0.740250,-0.476006,-1.596309,-0.441712,1.229113,0.806291
0.158011,-0.745821,-0.490398,-1.591636,-0.441435,1.213838,0.803841
0.142026,-0.751391,-0.504791,-1.586962,-0.441158,1.198564,0.801392
0.126041,-0.756961,-0.519183,-1.582288,-0.440881,1.183289,0.798942
0.110056,-0.762531,-0.533576,-1.577614,-0.440604,1.168015,0.796492
0.094071,-0.768101,-0.547968,-1.572941,-0.440327,1.152741,0.794043
0.078086,-0.773671,-0.562361,-1.568267,-0.440050,1.137466,0.791593
0.062101,-0.779242,-0.576753,-1.563593,-0.439773,1.122192,0.789144
0.046116,-0.784812,-0.591145,-1.558920,-0.439496,1.106918,0.786694
0.030131,-0.790382,-0.605538,-1.554246,-0.439219,1.091643,0.784244
0.014146,-0.795952,-0.619930,-1.549572,-0.438941,1.076369,0.781795
-0.001839,-0.801522,-0.634323,-1.544898,-0.438664,1.061094,0.779345
-0.017824,-0.807093,-0.648715,-1.540225,-0.438387,1.045820,0.776896
-0.033696,-0.804808,-0.651986,-1.537086,-0.448953,1.028587,0.785178
-0.049569,-0.802523,-0.655257,-1.533948,-0.459518,1.011354,0.793460
-0.065442,-0.800239,-0.658528,-1.530810,-0.470083,0.994120,0.801742
-0.081315,-0.797954,-0.661799,-1.527671,-0.480649,0.976887,0.810024
-0.097187,-0.795670,-0.665070,-1.524533,-0.491214,0.959654,0.818306
-0.113060,-0.793385,-0.668341,-1.521394,-0.501779,0.942421,0.826589
-0.128933,-0.791101,-0.671612,-1.518256,-0.512345,0.925188,0.834871
-0.144805,-0.788816,-0.674883,-1.515118,-0.522910,0.907954,0.843153
-0.160678,-0.786531,-0.678154,-1.511979,-0.533476,0.890721,0.851435
-0.176551,-0.784247,-0.681425,-1.508841,-0.544041,0.873488,0.859717
-0.192424,-0.781962,-0.684696,-1.505702,-0.554606,0.856255,0.867999
-0.208296,-0.779678,-0.687967,-1.502564,-0.565172,0.839022,0.876281
-0.224169,-0.777393,-0.691238,-1.499426,-0.575737,0.821788,0.884564
-0.240042,-0.775109,-0.694509,-1.496287,-0.586302,0.804555,0.892846
-0.255915,-0.772824,-0.697780,-1.493149,-0.596868,0.787322,0.901128
-0.271787,-0.770540,-0.701051,-1.490011,-0.607433,0.770089,0.909410
-0.287660,-0.768255,-0.704322,-1.486872,-0.617998,0.752856,0.917692
-0.303533,-0.765970,-0.707593,-1.483734,-0.628564,0.735622,0.925974
-0.319405,-0.763686,-0.710864,-1.480595,-0.639129,0.718389,0.934257
-0.335278,-0.761401,-0.714135,-1.477457,-0.649695,0.701156,0.942539
-0.344829,-0.749996,-0.727803,-1.468001,-0.648736,0.689210,0.931873
-0.354379,-0.738591,-0.741472,-1.458546,-0.647778,0.677264,0.921207
-0.363930,-0.727186,-0.755140,-1.449090,-0.646819,0.665319,0.910541
-0.373481,-0.715781,-0.768809,-1.439634,-0.645861,0.653373,0.899875
-0.383031,-0.704375,-0.782478,-1.430179,-0.644902,0.641427,0.889209
-0.392582,-0.692970,-0.796146,-1.420723,-0.643944,0.629481,0.878543
-0.402132,-0.681565,-0.809815,-1.411267,-0.642985,0.617535,0.867877
-0.411683,-0.670160,-0.823484,-1.401812,-0.642027,0.605590,0.857211
-0.421234,-0.658755,-0.837152,-1.392356,-0.641068,0.593644,0.846546
-0.430784,-0.647350,-0.850821,-1.382900,-0.640110,0.581698,0.835880
-0.440335,-0.635944,-0.864490,-1.373445,-0.639151,0.569752,0.825214
-0.449886,-0.624539,-0.878158,-1.363989,-0.638193,0.557807,0.814548
-0.459436,-0.613134,-0.891827,-1.354533,-0.637234,0.545861,0.803882
-0.468987,-0.601729,-0.905496,-1.345078,-0.636276,0.533915,0.793216
-0.478537,-0.590324,-0.919164,-1.335622,-0.635317,0.521969,0.782550
-0.488088,-0.578919,-0.932833,-1.326166,-0.634359,0.510023,0.771884
-0.497639,-0.567513,-0.946502,-1.316711,-0.633400,0.498078,0.761218
-0.507189,-0.556108,-0.960170,-1.307255,-0.632442,0.486132,0.750552
-0.516740,-0.544703,-0.973839,-1.297799,-0.631483,0.474186,0.739887
-0.526290,-0.533298,-0.987507,-1.288344,-0.630525,0.462240,0.729221
-0.518488,-0.518834,-0.985452,-1.294024,-0.627632,0.442790,0.737074
-0.510686,-0.504371,-0.983396,-1.299704,-0.624739,0.423339,0.744928
-0.502884,-0.489908,-0.981341,-1.305384,-0.621846,0.403889,0.752781
-0.495082,-0.475444,-0.979285,-1.311064,-0.618953,0.384439,0.760635
-0.487280,-0.460981,-0.977230,-1.316744,-0.616060,0.364988,0.768488
-0.479478,-0.446517,-0.975174,-1.322424,-0.613167,0.345538,0.776342
-0.471676,-0.432054,-0.973119,-1.328105,-0.610274,0.326088,0.784195
-0.463874,-0.417590,-0.971063,-1.333785,-0.607381,0.306637,0.792049
-0.456072,-0.403127,-0.969008,-1.339465,-0.604488,0.287187,0.799902
-0.448269,-0.388664,-0.966952,-1.345145,-0.601596,0.267737,0.807756
-0.440467,-0.374200,-0.964897,-1.350825,-0.598703,0.248286,0.815609
-0.432665,-0.359737,-0.962841,-1.356505,-0.595810,0.228836,0.823463
-0.424863,-0.345273,-0.960785,-1.362185,-0.592917,0.209386,0.831316
-0.417061,-0.330810,-0.958730,-1.367866,-0.590024,0.189935,0.839170
-0.409259,-0.316346,-0.956674,-1.373546,-0.587131,0.170485,0.847024
-0.401457,-0.301883,-0.954619,-1.379226,-0.584238,0.151035,0.854877
-0.393655,-0.287419,-0.952563,-1.384906,-0.581345,0.131584,0.862731
-0.385853,-0.272956,-0.950508,-1.390586,-0.578452,0.112134,0.870584
-0.378051,-0.258493,-0.948452,-1.396266,-0.575559,0.092683,0.878438
-0.370249,-0.244029,-0.946397,-1.401946,-0.572666,0.073233,0.886291
-0.357359,-0.239387,-0.942361,-1.384635,-0.560189,0.079777,0.893554
-0.344469,-0.234745,-0.938325,-1.367324,-0.547712,0.086322,0.900816
-0.331579,-0.230103,-0.934290,-1.350013,-0.535234,0.092866,0.908078
-0.318689,-0.225461,-0.930254,-1.332702,-0.522757,0.099410,0.915341
-0.305799,-0.220819,-0.926218,-1.315391,-0.510280,0.105954,0.922603
-0.292909,-0.216177,-0.922183,-1.298080,-0.497802,0.112498,0.929865
-0.280019,-0.211535,-0.918147,-1.280768,-0.485325,0.119043,0.937128
-0.267129,-0.206893,-0.914111,-1.263457,-0.472847,0.125587,0.944390
-0.254239,-0.202251,-0.910076,-1.246146,-0.460370,0.132131,0.951652
-0.241349,-0.197609,-0.906040,-1.228835,-0.447893,0.138675,0.958915
-0.228459,-0.192967,-0.902004,-1.211524,-0.435415,0.145220,0.966177
-0.215569,-0.188325,-0.897969,-1.194213,-0.422938,0.151764,0.973440
-0.202679,-0.183683,-0.893933,-1.176902,-0.410460,0.158308,0.980702
-0.189789,-0.179040,-0.889897,-1.159591,-0.397983,0.164852,0.987964
-0.176899,-0.174398,-0.885862,-1.142279,-0.385506,0.171396,0.995227
-0.164009,-0.169756,-0.881826,-1.124968,-0.373028,0.177941,1.002489
-0.151119,-0.165114,-0.877790,-1.107657,-0.360551,0.184485,1.009751
-0.138229,-0.160472,-0.873755,-1.090346,-0.348073,0.191029,1.017014
-0.125339,-0.155830,-0.869719,-1.073035,-0.335596,0.197573,1.024276
-0.112449,-0.151188,-0.865683,-1.055724,-0.323119,0.204118,1.031538
-0.099559,-0.146546,-0.861648,-1.038413,-0.310641,0.210662,1.038801
-0.086669,-0.141904,-0.857612,-1.021102,-0.298164,0.217206,1.046063
-0.073779,-0.137262,-0.853576,-1.003790,-0.285687,0.223750,1.053326
-0.060889,-0.132620,-0.849540,-0.986479,-0.273209,0.230295,1.060588
-0.047999,-0.127978,-0.845505,-0.969168,-0.260732,0.236839,1.067850
-0.035109,-0.123336,-0.841469,-0.951857,-0.248254,0.243383,1.075113
-0.022219,-0.118694,-0.837433,-0.934546,-0.235777,0.249927,1.082375
-0.009329,-0.114052,-0.833398,-0.917235,-0.223300,0.256471,1.089637
0.003561,-0.109410,-0.829362,-0.899924,-0.210822,0.263016,1.096900
0.016451,-0.104768,-0.825326,-0.882613,-0.198345,0.269560,1.104162
0.029340,-0.100126,-0.821291,-0.865301,-0.185867,0.276104,1.111424
0.042230,-0.095484,-0.817255,-0.847990,-0.173390,0.282648,1.118687
0.055120,-0.090842,-0.813219,-0.830679,-0.160913,0.289193,1.125949
0.068010,-0.086200,-0.809184,-0.813368,-0.148435,0.295737,1.133212
0.080900,-0.081557,-0.805148,-0.796057,-0.135958,0.302281,1.140474
0.093790,-0.076915,-0.801112,-0.778746,-0.123480,0.308825,1.147736
0.106680,-0.072273,-0.797077,-0.761435,-0.111003,0.315369,1.154999
0.119570,-0.067631,-0.793041,-0.744124,-0.098526,0.321914,1.162261
0.132460,-0.062989,-0.789005,-0.726812,-0.086048,0.328458,1.169523
0.145350,-0.058347,-0.784970,-0.709501,-0.073571,0.335002,1.176786
0.154992,-0.054875,-0.781951,-0.696553,-0.064238,0.339897,1.182218
0.164633,-0.051403,-0.778932,-0.683605,-0.054905,0.344792,1.187650
0.174274,-0.047931,-0.775914,-0.670656,-0.045572,0.349687,1.193082
0.183916,-0.044459,-0.772895,-0.657708,-0.036240,0.354582,1.198514
0.193557,-0.040986,-0.769877,-0.644759,-0.026907,0.359477,1.203946
0.203199,-0.037514,-0.766858,-0.631811,-0.017574,0.364372,1.209378
0.212840,-0.034042,-0.763839,-0.618863,-0.008241,0.369267,1.214810
0.222482,-0.030570,-0.760821,-0.605914,0.001092,0.374162,1.220243
0.232123,-0.027098,-0.757802,-0.592966,0.010425,0.379057,1.225675
0.241764,-0.023626,-0.754784,-0.580018,0.019757,0.383952,1.231107
0.251406,-0.020153,-0.751765,-0.567069,0.029090,0.388846,1.236539
0.261047,-0.016681,-0.748746,-0.554121,0.038423,0.393741,1.241971
0.270689,-0.013209,-0.745728,-0.541173,0.047756,0.398636,1.247403
0.280330,-0.009737,-0.742709,-0.528224,0.057089,0.403531,1.252835
0.289972,-0.006265,-0.739691,-0.515276,0.066422,0.408426,1.258267
0.299613,-0.002793,-0.736672,-0.502327,0.075754,0.413321,1.263699
0.309254,0.000679,-0.733653,-0.489379,0.085087,0.418216,1.269131
0.318896,0.004152,-0.730635,-0.476431,0.094420,0.423111,1.274564
0.328537,0.007624,-0.727616,-0.463482,0.103753,0.428006,1.279996
0.338179,0.011096,-0.724598,-0.450534,0.113086,0.432901,1.285428
0.351853,0.020561,-0.731591,-0.439121,0.111726,0.447620,1.276446
0.365528,0.030027,-0.738585,-0.427708,0.110366,0.462339,1.267465
0.379202,0.039493,-0.745579,-0.416295,0.109006,0.477057,1.258484
0.392877,0.048958,-0.752572,-0.404881,0.107646,0.491776,1.249503
0.406551,0.058424,-0.759566,-0.393468,0.106286,0.506495,1.240521
0.420226,0.067889,-0.766560,-0.382055,0.104926,0.521214,1.231540
0.433900,0.077355,-0.773553,-0.370642,0.103566,0.535933,1.222559
0.447575,0.086820,-0.780547,-0.359229,0.102206,0.550651,1.213578
0.461249,0.096286,-0.787541,-0.347816,0.100846,0.565370,1.204596
0.474924,0.105751,-0.794535,-0.336403,0.099486,0.580089,1.195615
0.488598,0.115217,-0.801528,-0.324989,0.098126,0.594808,1.186634
0.502273,0.124682,-0.808522,-0.313576,0.096766,0.609527,1.177653
0.515947,0.134148,-0.815516,-0.302163,0.095406,0.624246,1.168671
0.529622,0.143613,-0.822509,-0.290750,0.094046,0.638964,1.159690
0.543296,0.153079,-0.829503,-0.279337,0.092686,0.653683,1.150709
0.556971,0.162545,-0.836497,-0.267924,0.091326,0.668402,1.141727
0.570645,0.172010,-0.843491,-0.256511,0.089966,0.683121,1.132746
0.584320,0.181476,-0.850484,-0.245097,0.088606,0.697840,1.123765
0.597994,0.190941,-0.857478,-0.233684,0.087246,0.712558,1.114784
0.611668,0.200407,-0.864472,-0.222271,0.085886,0.727277,1.105802
0.627001,0.210600,-0.856249,-0.229520,0.074242,0.739380,1.102099
0.642334,0.220793,-0.848026,-0.236768,0.062599,0.751482,1.098395
0.657667,0.230986,-0.839803,-0.244017,0.050955,0.763585,1.094692
0.672999,0.241179,-0.831581,-0.251266,0.039311,0.775688,1.090988
0.688332,0.251372,-0.823358,-0.258514,0.027667,0.787790,1.087285
0.703665,0.261565,-0.815135,-0.265763,0.016023,0.799893,1.083581
0.718997,0.271759,-0.806912,-0.273011,0.004380,0.811996,1.079877
0.734330,0.281952,-0.798689,-0.280260,-0.007264,0.824098,1.076174
0.749663,0.292145,-0.790467,-0.287509,-0.018908,0.836201,1.072470
0.764995,0.302338,-0.782244,-0.294757,-0.030552,0.848304,1.068767
0.780328,0.312531,-0.774021,-0.302006,-0.042196,0.860406,1.065063
0.795661,0.322724,-0.765798,-0.309254,-0.053839,0.872509,1.061360
0.810993,0.332917,-0.757576,-0.316503,-0.065483,0.884612,1.057656
0.826326,0.343110,-0.749353,-0.323751,-0.077127,0.896714,1.053953
0.841659,0.353304,-0.741130,-0.331000,-0.088771,0.908817,1.050249
0.856991,0.363497,-0.732907,-0.338249,-0.100415,0.920920,1.046545
0.872324,0.373690,-0.724684,-0.345497,-0.112058,0.933022,1.042842
0.887657,0.383883,-0.716462,-0.352746,-0.123702,0.945125,1.039138
0.902989,0.394076,-0.708239,-0.359994,-0.135346,0.957228,1.035435
0.918322,0.404269,-0.700016,-0.367243,-0.146990,0.969330,1.031731
0.918560,0.418765,-0.689223,-0.367431,-0.165139,0.977783,1.036962
0.918797,0.433261,-0.678430,-0.367619,-0.183288,0.986236,1.042193
0.919035,0.447758,-0.667637,-0.367807,-0.201437,0.994689,1.047424
0.919272,0.462254,-0.656844,-0.367995,-0.219586,1.003142,1.052655
0.919510,0.476750,-0.646051,-0.368183,-0.237735,1.011595,1.057886
0.919747,0.491246,-0.635258,-0.368371,-0.255883,1.020047,1.063117
0.919985,0.505742,-0.624465,-0.368559,-0.274032,1.028500,1.068348
0.920223,0.520238,-0.613672,-0.368747,-0.292181,1.036953,1.073579
0.920460,0.534734,-0.602879,-0.368935,-0.310330,1.045406,1.078810
0.920698,0.549230,-0.592086,-0.369123,-0.328479,1.053859,1.084040
0.920935,0.563726,-0.581293,-0.369311,-0.346628,1.062312,1.089271
0.921173,0.578222,-0.570500,-0.369499,-0.364777,1.070765,1.094502
0.921410,0.592719,-0.559707,-0.369687,-0.382926,1.079217,1.099733
0.921648,0.607215,-0.548914,-0.369875,-0.401075,1.087670,1.104964
0.921885,0.621711,-0.538121,-0.370062,-0.419224,1.096123,1.110195
0.922123,0.636207,-0.527328,-0.370250,-0.437373,1.104576,1.115426
0.922360,0.650703,-0.516535,-0.370438,-0.455522,1.113029,1.120657
0.922598,0.665199,-0.505742,-0.370626,-0.473671,1.121482,1.125888
0.922836,0.679695,-0.494949,-0.370814,-0.491820,1.129934,1.131119
0.923073,0.694191,-0.484156,-0.371002,-0.509969,1.138387,1.136350
0.931158,0.679136,-0.490550,-0.367311,-0.515765,1.157519,1.133394
0.939242,0.664080,-0.496944,-0.363620,-0.521562,1.176652,1.130439
0.947327,0.649024,-0.503338,-0.359928,-0.527358,1.195784,1.127483
0.955411,0.633968,-0.509732,-0.356237,-0.533154,1.214916,1.124528
0.963496,0.618912,-0.516126,-0.352545,-0.538950,1.234048,1.121572
0.971580,0.603857,-0.522520,-0.348854,-0.544747,1.253180,1.118617
0.979665,0.588801,-0.528913,-0.345163,-0.550543,1.272312,1.115661
0.987749,0.573745,-0.535307,-0.341471,-0.556339,1.291445,1.112706
0.995834,0.558689,-0.541701,-0.337780,-0.562135,1.310577,1.109750
1.003918,0.543633,-0.548095,-0.334088,-0.567932,1.329709,1.106795
1.012003,0.528578,-0.554489,-0.330397,-0.573728,1.348841,1.103839
1.020087,0.513522,-0.560883,-0.326706,-0.579524,1.367973,1.100884
1.028172,0.498466,-0.567277,-0.323014,-0.585320,1.387105,1.097929
1.036256,0.483410,-0.573671,-0.319323,-0.591117,1.406238,1.094973
1.044341,0.468354,-0.580065,-0.315632,-0.596913,1.425370,1.092018
1.052425,0.453299,-0.586459,-0.311940,-0.602709,1.444502,1.089062
1.060510,0.438243,-0.592852,-0.308249,-0.608505,1.463634,1.086107
1.068594,0.423187,-0.599246,-0.304557,-0.614302,1.482766,1.083151
1.076678,0.408131,-0.605640,-0.300866,-0.620098,1.501898,1.080196
1.084763,0.393075,-0.612034,-0.297175,-0.625894,1.521031,1.077240
1.094309,0.406322,-0.600264,-0.291318,-0.629559,1.538388,1.076346
1.103854,0.419568,-0.588495,-0.285461,-0.633224,1.555745,1.075453
1.113400,0.432814,-0.576725,-0.279604,-0.636888,1.573102,1.074559
1.122946,0.446061,-0.564956,-0.273747,-0.640553,1.590459,1.073665
1.132492,0.459307,-0.553186,-0.267890,-0.644218,1.607816,1.072771
1.142037,0.472553,-0.541416,-0.262033,-0.647882,1.625174,1.071877
1.151583,0.485800,-0.529647,-0.256176,-0.651547,1.642531,1.070983
1.161129,0.499046,-0.517877,-0.250319,-0.655212,1.659888,1.070089
1.170675,0.512292,-0.506107,-0.244462,-0.658876,1.677245,1.069196
1.180220,0.525539,-0.494338,-0.238605,-0.662541,1.694602,1.068302
1.189766,0.538785,-0.482568,-0.232748,-0.666206,1.711960,1.067408
1.199312,0.552031,-0.470799,-0.226891,-0.669870,1.729317,1.066514
1.208858,0.565278,-0.459029,-0.221034,-0.673535,1.746674,1.065620
1.218403,0.578524,-0.447259,-0.215177,-0.677200,1.764031,1.064726
1.227949,0.591770,-0.435490,-0.209319,-0.680864,1.781388,1.063832
1.237495,0.605017,-0.423720,-0.203462,-0.684529,1.798745,1.062939
1.247041,0.618263,-0.411950,-0.197605,-0.688194,1.816103,1.062045
1.256586,0.631509,-0.400181,-0.191748,-0.691858,1.833460,1.061151
1.266132,0.644756,-0.388411,-0.185891,-0.695523,1.850817,1.060257
1.275678,0.658002,-0.376641,-0.180034,-0.699188,1.868174,1.059363
1.297145,0.657232,-0.364631,-0.185020,-0.690128,1.874616,1.060268
1.318611,0.656462,-0.352621,-0.190005,-0.681067,1.881059,1.061173
1.340078,0.655692,-0.340611,-0.194990,-0.672007,1.887501,1.062077
1.361544,0.654922,-0.328601,-0.199975,-0.662947,1.893944,1.062982
1.383011,0.654152,-0.316591,-0.204960,-0.653887,1.900386,1.063887
1.404478,0.653382,-0.304580,-0.209945,-0.644826,1.906828,1.064791
1.425944,0.652612,-0.292570,-0.214930,-0.635766,1.913271,1.065696
1.447411,0.651842,-0.280560,-0.219916,-0.626706,1.919713,1.066601
1.468878,0.651072,-0.268550,-0.224901,-0.617646,1.926156,1.067505
1.490344,0.650302,-0.256540,-0.229886,-0.608586,1.932598,1.068410
1.511811,0.649532,-0.244530,-0.234871,-0.599525,1.939041,1.069315
1.533278,0.648762,-0.232519,-0.239856,-0.590465,1.945483,1.070219
1.554744,0.647993,-0.220509,-0.244841,-0.581405,1.951925,1.071124
1.576211,0.647223,-0.208499,-0.249826,-0.572345,1.958368,1.072029
1.597677,0.646453,-0.196489,-0.254811,-0.563285,1.964810,1.072933
1.619144,0.645683,-0.184479,-0.259797,-0.554224,1.971253,1.073838
1.640611,0.644913,-0.172469,-0.264782,-0.545164,1.977695,1.074743
1.662077,0.644143,-0.160458,-0.269767,-0.536104,1.984137,1.075647
1.683544,0.643373,-0.148448,-0.274752,-0.527044,1.990580,1.076552
1.705011,0.642603,-0.136438,-0.279737,-0.517983,1.997022,1.077457
1.725092,0.638397,-0.136951,-0.294190,-0.507472,1.996813,1.073676
1.745173,0.634191,-0.137463,-0.308643,-0.496961,1.996604,1.069894
1.765253,0.629986,-0.137976,-0.323096,-0.486449,1.996394,1.066113
1.785334,0.625780,-0.138489,-0.337549,-0.475938,1.996185,1.062332
1.805415,0.621574,-0.139001,-0.352003,-0.465427,1.995975,1.058551
1.825496,0.617368,-0.139514,-0.366456,-0.454915,1.995766,1.054770
1.845577,0.613163,-0.140027,-0.380909,-0.444404,1.995557,1.050989
1.865658,0.608957,-0.140539,-0.395362,-0.433892,1.995347,1.047208
1.885739,0.604751,-0.141052,-0.409815,-0.423381,1.995138,1.043427
1.905820,0.600546,-0.141565,-0.424268,-0.412870,1.994929,1.039646
1.925901,0.596340,-0.142077,-0.438721,-0.402358,1.994719,1.035865
1.945982,0.592134,-0.142590,-0.453174,-0.391847,1.994510,1.032084
1.966063,0.587928,-0.143103,-0.467627,-0.381336,1.994301,1.028303
1.986144,0.583723,-0.143615,-0.482080,-0.370824,1.994091,1.024522
2.006225,0.579517,-0.144128,-0.496533,-0.360313,1.993882,1.020741
2.026306,0.575311,-0.144640,-0.510986,-0.349801,1.993673,1.016960
2.046387,0.571105,-0.145153,-0.525439,-0.339290,1.993463,1.013178
2.066468,0.566900,-0.145666,-0.539892,-0.328779,1.993254,1.009397
2.086549,0.562694,-0.146178,-0.554345,-0.318267,1.993045,1.005616
2.106630,0.558488,-0.146691,-0.568799,-0.307756,1.992835,1.001835
2.099756,0.575299,-0.139178,-0.573489,-0.300472,2.002654,0.987794
2.092882,0.592110,-0.131665,-0.578180,-0.293189,2.012474,0.973753
2.086009,0.608922,-0.124153,-0.582870,-0.285905,2.022293,0.959713
2.079135,0.625733,-0.116640,-0.587561,-0.278622,2.032112,0.945672
2.072261,0.642544,-0.109127,-0.592251,-0.271338,2.041931,0.931631
2.065388,0.659355,-0.101614,-0.596942,-0.264054,2.051750,0.917590
2.058514,0.676166,-0.094101,-0.601632,-0.256771,2.061570,0.903549
2.051641,0.692977,-0.086589,-0.606323,-0.249487,2.071389,0.889508
2.044767,0.709788,-0.079076,-0.611013,-0.242204,2.081208,0.875467
2.037893,0.726599,-0.071563,-0.615704,-0.234920,2.091027,0.861426
2.031020,0.743410,-0.064050,-0.620394,-0.227637,2.100846,0.847385
2.024146,0.760221,-0.056537,-0.625085,-0.220353,2.110666,0.833345
2.017272,0.777032,-0.049024,-0.629775,-0.213069,2.120485,0.819304
2.010399,0.793843,-0.041512,-0.634466,-0.205786,2.130304,0.805263
2.003525,0.810654,-0.033999,-0.639156,-0.198502,2.140123,0.791222
1.996652,0.827465,-0.026486,-0.643847,-0.191219,2.149942,0.777181
1.989778,0.844276,-0.018973,-0.648537,-0.183935,2.159762,0.763140
1.982904,0.861087,-0.011460,-0.653228,-0.176651,2.169581,0.749099
1.976031,0.877898,-0.003948,-0.657918,-0.169368,2.179400,0.735058
1.969157,0.894710,0.003565,-0.662609,-0.162084,2.189219,0.721017
1.988199,0.899974,0.003387,-0.669478,-0.153980,2.204758,0.724217
2.007241,0.905239,0.003209,-0.676348,-0.145876,2.220297,0.727416
2.026283,0.910503,0.003031,-0.683217,-0.137772,2.235836,0.730615
2.045326,0.915768,0.002852,-0.690087,-0.129667,2.251375,0.733814
2.064368,0.921032,0.002674,-0.696956,-0.121563,2.266914,0.737013
2.083410,0.926297,0.002496,-0.703826,-0.113459,2.282453,0.740212
2.102452,0.931561,0.002317,-0.710696,-0.105355,2.297992,0.743411
2.121494,0.936826,0.002139,-0.717565,-0.097251,2.313532,0.746610
2.140536,0.942090,0.001961,-0.724435,-0.089146,2.329071,0.749810
2.159578,0.947355,0.001783,-0.731304,-0.081042,2.344610,0.753009
2.178621,0.952619,0.001604,-0.738174,-0.072938,2.360149,0.756208
2.197663,0.957884,0.001426,-0.745043,-0.064834,2.375688,0.759407
2.216705,0.963148,0.001248,-0.751913,-0.056729,2.391227,0.762606
2.235747,0.968413,0.001070,-0.758783,-0.048625,2.406766,0.765805
2.254789,0.973677,0.000891,-0.765652,-0.040521,2.422305,0.769004
2.273831,0.978942,0.000713,-0.772522,-0.032417,2.437844,0.772203
2.292873,0.984206,0.000535,-0.779391,-0.024313,2.453383,0.775403
2.311916,0.989471,0.000357,-0.786261,-0.016208,2.468922,0.778602
2.330958,0.994735,0.000178,-0.793130,-0.008104,2.484461,0.781801
2.350000,1.000000,0.000000,-0.800000,0.000000,2.500000,0.785000
