saahu27/vamp/solution/BKPIECE1.csv
joint_1,joint_2,joint_3,joint_4,joint_5,joint_6,joint_7
0.000000,-0.785000,0.000000,-2.356000,0.000000,1.571000,0.785000
-0.120927,-0.779902,-0.119331,-2.264700,0.053161,1.549826,0.634912
-0.241854,-0.774803,-0.238663,-2.173399,0.106322,1.528653,0.484824
-0.362781,-0.769705,-0.357994,-2.082099,0.159484,1.507479,0.334736
-0.483708,-0.764607,-0.477326,-1.990799,0.212645,1.486305,0.184648
-0.604635,-0.759508,-0.596657,-1.899498,0.265806,1.465132,0.034560
-0.725562,-0.754410,-0.715989,-1.808198,0.318967,1.443958,-0.115528
-0.846489,-0.749311,-0.835320,-1.716898,0.372129,1.422784,-0.265616
-0.967416,-0.744213,-0.954652,-1.625597,0.425290,1.401611,-0.415703
-1.088343,-0.739115,-1.073983,-1.534297,0.478451,1.380437,-0.565791
-1.209270,-0.734016,-1.193315,-1.442997,0.531612,1.359263,-0.715879
-1.330197,-0.728918,-1.312646,-1.351696,0.584774,1.338090,-0.865967
-1.451124,-0.723820,-1.431977,-1.260396,0.637935,1.316916,-1.016055
-1.572051,-0.718721,-1.551309,-1.169096,0.691096,1.295742,-1.166143
-1.692978,-0.713623,-1.670640,-1.077795,0.744257,1.274568,-1.316231
-1.813905,-0.708525,-1.789972,-0.986495,0.797419,1.253395,-1.466319
-1.934832,-0.703426,-1.909303,-0.895195,0.850580,1.232221,-1.616407
-2.055759,-0.698328,-2.028635,-0.803894,0.903741,1.211047,-1.766495
-2.176686,-0.693229,-2.147966,-0.712594,0.956902,1.189874,-1.916583
-2.297613,-0.688131,-2.267298,-0.621294,1.010064,1.168700,-2.066671
-2.418540,-0.683033,-2.386629,-0.529993,1.063225,1.147526,-2.216759
-2.323908,-0.530765,-2.387835,-0.448086,1.073138,1.173546,-2.060170
-2.229276,-0.378497,-2.389040,-0.366178,1.083051,1.199565,-1.903581
-2.134644,-0.226229,-2.390245,-0.284270,1.092963,1.225584,-1.746992
-2.040011,-0.073962,-2.391451,-0.202362,1.102876,1.251603,-1.590403
-1.945379,0.078306,-2.392656,-0.120454,1.112789,1.277622,-1.433814
-1.850747,0.230574,-2.393862,-0.038546,1.122702,1.303641,-1.277225
-1.756115,0.382842,-2.395067,0.043362,1.132615,1.329661,-1.120636
-1.661482,0.535109,-2.396273,0.125270,1.142527,1.355680,-0.964047
-1.566850,0.687377,-2.397478,0.207178,1.152440,1.381699,-0.807458
-1.472218,0.839645,-2.398683,0.289085,1.162353,1.407718,-0.650869
-1.377586,0.991913,-2.399889,0.370993,1.172266,1.433737,-0.494280
-1.282953,1.144181,-2.401094,0.452901,1.182179,1.459756,-0.337691
-1.188321,1.296448,-2.402300,0.534809,1.192091,1.485776,-0.181102
-1.093689,1.448716,-2.403505,0.616717,1.202004,1.511795,-0.024513
-0.999057,1.600984,-2.404711,0.698625,1.211917,1.537814,0.132076
-0.904424,1.753252,-2.405916,0.780533,1.221830,1.563833,0.288665
-0.809792,1.905520,-2.407121,0.862441,1.231743,1.589852,0.445254
-0.715160,2.057787,-2.408327,0.944349,1.241656,1.615871,0.601843
-0.620528,2.210055,-2.409532,1.026256,1.251568,1.641891,0.758432
-0.525896,2.362323,-2.410738,1.108164,1.261481,1.667910,0.915021
-0.619583,2.341202,-2.292206,1.080163,1.326167,1.657917,0.828379
-0.713270,2.320082,-2.173675,1.052162,1.390854,1.647923,0.741737
-0.806957,2.298962,-2.055144,1.024161,1.455540,1.637930,0.655095
-0.900644,2.277841,-1.936612,0.996160,1.520226,1.627937,0.568453
-0.994331,2.256721,-1.818081,0.968159,1.584912,1.617944,0.481812
-1.088018,2.235601,-1.699550,0.940158,1.649598,1.607951,0.395170
-1.181705,2.214480,-1.581018,0.912156,1.714285,1.597958,0.308528
-1.275392,2.193360,-1.462487,0.884155,1.778971,1.587965,0.221886
-1.369079,2.172240,-1.343956,0.856154,1.843657,1.577972,0.135244
-1.462766,2.151119,-1.225424,0.828153,1.908343,1.567978,0.048603
-1.556453,2.129999,-1.106893,0.800152,1.973029,1.557985,-0.038039
-1.650140,2.108878,-0.988362,0.772151,2.037716,1.547992,-0.124681
-1.743828,2.087758,-0.869831,0.744150,2.102402,1.537999,-0.211323
-1.837515,2.066638,-0.751299,0.716149,2.167088,1.528006,-0.297965
-1.931202,2.045517,-0.632768,0.688147,2.231774,1.518013,-0.384606
-2.024889,2.024397,-0.514237,0.660146,2.296460,1.508020,-0.471248
-2.118576,2.003277,-0.395705,0.632145,2.361146,1.498026,-0.557890
-2.212263,1.982156,-0.277174,0.604144,2.425833,1.488033,-0.644532
-2.305950,1.961036,-0.158643,0.576143,2.490519,1.478040,-0.731173
-2.399637,1.939916,-0.040111,0.548142,2.555205,1.468047,-0.817815
-2.377969,1.898618,-0.149527,0.565161,2.513747,1.421896,-0.770384
-2.356301,1.857320,-0.258944,0.582180,2.472288,1.375746,-0.722952
-2.334634,1.816022,-0.368360,0.599200,2.430830,1.329595,-0.675521
-2.312966,1.774724,-0.477776,0.616219,2.389371,1.283444,-0.628089
-2.291298,1.733426,-0.587192,0.633238,2.347913,1.237294,-0.580658
-2.269630,1.692128,-0.696608,0.650257,2.306454,1.191143,-0.533226
-2.247962,1.650831,-0.806024,0.667277,2.264996,1.144992,-0.485795
-2.226295,1.609533,-0.915440,0.684296,2.223537,1.098842,-0.438363
-2.204627,1.568235,-1.024857,0.701315,2.182079,1.052691,-0.390932
-2.182959,1.526937,-1.134273,0.718335,2.140620,1.006541,-0.343500
-2.161291,1.485639,-1.243689,0.735354,2.099162,0.960390,-0.296069
-2.139623,1.444341,-1.353105,0.752373,2.057703,0.914239,-0.248637
-2.117956,1.403044,-1.462521,0.769392,2.016245,0.868089,-0.201206
-2.096288,1.361746,-1.571937,0.786412,1.974786,0.821938,-0.153774
-2.074620,1.320448,-1.681353,0.803431,1.933328,0.775787,-0.106343
-2.052952,1.279150,-1.790770,0.820450,1.891869,0.729637,-0.058911
-2.031284,1.237852,-1.900186,0.837470,1.850411,0.683486,-0.011479
-2.009616,1.196554,-2.009602,0.854489,1.808952,0.637335,0.035952
-1.987949,1.155257,-2.119018,0.871508,1.767494,0.591185,0.083384
-1.966281,1.113959,-2.228434,0.888527,1.726035,0.545034,0.130815
-1.963548,1.042394,-2.200262,0.873782,1.619793,0.660963,-0.000795
-1.960815,0.970829,-2.172090,0.859036,1.513551,0.776891,-0.132404
-1.958083,0.899264,-2.143918,0.844290,1.407308,0.892820,-0.264014
-1.955350,0.827700,-2.115746,0.829544,1.301066,1.008749,-0.395624
-1.952617,0.756135,-2.087574,0.814798,1.194824,1.124677,-0.527233
-1.949885,0.684570,-2.059402,0.800052,1.088581,1.240606,-0.658843
-1.947152,0.613005,-2.031230,0.785306,0.982339,1.356535,-0.790453
-1.944419,0.541441,-2.003058,0.770560,0.876097,1.472463,-0.922062
-1.941687,0.469876,-1.974886,0.755814,0.769855,1.588392,-1.053672
-1.938954,0.398311,-1.946714,0.741068,0.663612,1.704321,-1.185282
-1.936221,0.326746,-1.918542,0.726322,0.557370,1.820249,-1.316891
-1.933488,0.255182,-1.890370,0.711577,0.451128,1.936178,-1.448501
-1.930756,0.183617,-1.862198,0.696831,0.344885,2.052107,-1.580111
-1.928023,0.112052,-1.834026,0.682085,0.238643,2.168035,-1.711720
-1.925290,0.040487,-1.805854,0.667339,0.132401,2.283964,-1.843330
-1.922558,-0.031078,-1.777682,0.652593,0.026159,2.399893,-1.974940
-1.919825,-0.102642,-1.749510,0.637847,-0.080084,2.515821,-2.106550
-1.917092,-0.174207,-1.721338,0.623101,-0.186326,2.631750,-2.238159
-1.914360,-0.245772,-1.693166,0.608355,-0.292568,2.747679,-2.369769
-1.911627,-0.317337,-1.664994,0.593609,-0.398811,2.863607,-2.501379
-1.858722,-0.187183,-1.524715,0.607572,-0.521182,2.804338,-2.369800
-1.805817,-0.057030,-1.384436,0.621535,-0.643554,2.745068,-2.238222
-1.752912,0.073123,-1.244156,0.635497,-0.765926,2.685798,-2.106644
-1.700007,0.203276,-1.103877,0.649460,-0.888297,2.626529,-1.975065
-1.647103,0.333430,-0.963598,0.663423,-1.010669,2.567259,-1.843487
-1.594198,0.463583,-0.823318,0.677385,-1.133041,2.507989,-1.711909
-1.541293,0.593736,-0.683039,0.691348,-1.255412,2.448720,-1.580331
-1.488388,0.723889,-0.542760,0.705311,-1.377784,2.389450,-1.448752
-1.435483,0.854043,-0.402480,0.719273,-1.500156,2.330180,-1.317174
-1.382578,0.984196,-0.262201,0.733236,-1.622527,2.270911,-1.185596
-1.329673,1.114349,-0.121921,0.747199,-1.744899,2.211641,-1.054017
-1.276768,1.244502,0.018358,0.761161,-1.867271,2.152371,-0.922439
-1.223864,1.374656,0.158637,0.775124,-1.989642,2.093102,-0.790861
-1.170959,1.504809,0.298917,0.789087,-2.112014,2.033832,-0.659282
-1.118054,1.634962,0.439196,0.803049,-2.234386,1.974562,-0.527704
-1.065149,1.765115,0.579475,0.817012,-2.356758,1.915293,-0.396126
-1.012244,1.895269,0.719755,0.830975,-2.479129,1.856023,-0.264548
-0.959339,2.025422,0.860034,0.844937,-2.601501,1.796753,-0.132969
-0.906434,2.155575,1.000313,0.858900,-2.723873,1.737483,-0.001391
-0.853529,2.285728,1.140593,0.872863,-2.846244,1.678214,0.130187
-0.891285,2.208717,1.187840,0.889671,-2.811189,1.739836,0.149493
-0.929041,2.131706,1.235088,0.906479,-2.776133,1.801458,0.168799
-0.966797,2.054694,1.282336,0.923288,-2.741078,1.863080,0.188104
-1.004553,1.977683,1.329584,0.940096,-2.706022,1.924703,0.207410
-1.042308,1.900672,1.376832,0.956904,-2.670966,1.986325,0.226715
-1.080064,1.823660,1.424080,0.973713,-2.635911,2.047947,0.246021
-1.117820,1.746649,1.471327,0.990521,-2.600855,2.109569,0.265327
-1.155576,1.669638,1.518575,1.007329,-2.565800,2.171192,0.284632
-1.193331,1.592626,1.565823,1.024137,-2.530744,2.232814,0.303938
-1.231087,1.515615,1.613071,1.040946,-2.495689,2.294436,0.323244
-1.268843,1.438603,1.660319,1.057754,-2.460633,2.356058,0.342549
-1.306599,1.361592,1.707566,1.074562,-2.425577,2.417680,0.361855
-1.344354,1.284581,1.754814,1.091371,-2.390522,2.479303,0.381160
-1.382110,1.207569,1.802062,1.108179,-2.355466,2.540925,0.400466
-1.419866,1.130558,1.849310,1.124987,-2.320411,2.602547,0.419772
-1.457622,1.053547,1.896558,1.141796,-2.285355,2.664169,0.439077
-1.495377,0.976535,1.943806,1.158604,-2.250300,2.725792,0.458383
-1.533133,0.899524,1.991053,1.175412,-2.215244,2.787414,0.477689
-1.570889,0.822513,2.038301,1.192220,-2.180188,2.849036,0.496994
-1.608645,0.745501,2.085549,1.209029,-2.145133,2.910658,0.516300
-1.465826,0.642743,1.985110,1.198800,-2.027510,2.820887,0.557479
-1.323008,0.539984,1.884671,1.188572,-1.909887,2.731115,0.598659
-1.180189,0.437225,1.784231,1.178343,-1.792264,2.641344,0.639838
-1.037371,0.334466,1.683792,1.168115,-1.674641,2.551573,0.681018
-0.894552,0.231708,1.583353,1.157887,-1.557018,2.461801,0.722197
-0.751734,0.128949,1.482914,1.147658,-1.439395,2.372030,0.763377
-0.608915,0.026190,1.382475,1.137430,-1.321772,2.282258,0.804556
-0.466097,-0.076569,1.282035,1.127201,-1.204149,2.192487,0.845736
-0.323278,-0.179327,1.181596,1.116973,-1.086526,2.102716,0.886915
-0.180460,-0.282086,1.081157,1.106744,-0.968903,2.012944,0.928095
-0.037641,-0.384845,0.980718,1.096516,-0.851280,1.923173,0.969274
0.105177,-0.487604,0.880279,1.086287,-0.733657,1.833402,1.010454
0.247996,-0.590363,0.779840,1.076059,-0.616034,1.743630,1.051634
0.390814,-0.693121,0.679400,1.065831,-0.498411,1.653859,1.092813
0.533633,-0.795880,0.578961,1.055602,-0.380788,1.564087,1.133993
0.676451,-0.898639,0.478522,1.045374,-0.263165,1.474316,1.175172
0.819270,-1.001398,0.378083,1.035145,-0.145542,1.384545,1.216352
0.962088,-1.104156,0.277644,1.024917,-0.027919,1.294773,1.257531
1.104906,-1.206915,0.177204,1.014688,0.089704,1.205002,1.298711
1.247725,-1.309674,0.076765,1.004460,0.207327,1.115230,1.339890
1.228476,-1.270656,0.185803,1.008569,0.066457,1.169354,1.298013
1.209226,-1.231639,0.294840,1.012678,-0.074413,1.223477,1.256136
1.189977,-1.192621,0.403878,1.016787,-0.215284,1.277601,1.214258
1.170728,-1.153603,0.512915,1.020896,-0.356154,1.331724,1.172381
1.151479,-1.114586,0.621953,1.025005,-0.497024,1.385848,1.130504
1.132230,-1.075568,0.730990,1.029114,-0.637894,1.439972,1.088627
1.112980,-1.036550,0.840028,1.033223,-0.778765,1.494095,1.046750
1.093731,-0.997533,0.949065,1.037333,-0.919635,1.548219,1.004872
1.074482,-0.958515,1.058103,1.041442,-1.060505,1.602342,0.962995
1.055233,-0.919497,1.167140,1.045551,-1.201375,1.656466,0.921118
1.035983,-0.880480,1.276178,1.049660,-1.342246,1.710589,0.879241
1.016734,-0.841462,1.385215,1.053769,-1.483116,1.764713,0.837364
0.997485,-0.802444,1.494253,1.057878,-1.623986,1.818836,0.795486
0.978236,-0.763427,1.603290,1.061987,-1.764856,1.872960,0.753609
0.958986,-0.724409,1.712328,1.066096,-1.905726,1.927083,0.711732
0.939737,-0.685391,1.821365,1.070205,-2.046597,1.981207,0.669855
0.920488,-0.646374,1.930403,1.074314,-2.187467,2.035330,0.627978
0.901239,-0.607356,2.039441,1.078423,-2.328337,2.089454,0.586100
0.881989,-0.568338,2.148478,1.082532,-2.469207,2.143577,0.544223
0.862740,-0.529321,2.257516,1.086641,-2.610078,2.197701,0.502346
0.861752,-0.607905,2.275122,0.937621,-2.477066,2.158270,0.566301
0.860763,-0.686490,2.292729,0.788601,-2.344054,2.118840,0.630257
0.859775,-0.765074,2.310336,0.639580,-2.211042,2.079409,0.694213
0.858787,-0.843659,2.327942,0.490560,-2.078030,2.039978,0.758168
0.857798,-0.922243,2.345549,0.341539,-1.945019,2.000548,0.822124
0.856810,-1.000828,2.363156,0.192519,-1.812007,1.961117,0.886079
0.855822,-1.079412,2.380762,0.043499,-1.678995,1.921686,0.950035
0.854833,-1.157997,2.398369,-0.105522,-1.545983,1.882256,1.013990
0.853845,-1.236581,2.415976,-0.254542,-1.412971,1.842825,1.077946
0.852857,-1.315166,2.433583,-0.403563,-1.279960,1.803394,1.141901
0.851868,-1.393750,2.451189,-0.552583,-1.146948,1.763964,1.205857
0.850880,-1.472335,2.468796,-0.701603,-1.013936,1.724533,1.269812
0.849892,-1.550919,2.486403,-0.850624,-0.880924,1.685102,1.333768
0.848903,-1.629504,2.504009,-0.999644,-0.747912,1.645672,1.397723
0.847915,-1.708088,2.521616,-1.148665,-0.614901,1.606241,1.461679
0.846927,-1.786673,2.539223,-1.297685,-0.481889,1.566811,1.525634
0.845938,-1.865257,2.556830,-1.446705,-0.348877,1.527380,1.589590
0.844950,-1.943842,2.574436,-1.595726,-0.215865,1.487949,1.653545
0.843962,-2.022426,2.592043,-1.744746,-0.082853,1.448519,1.717501
0.842973,-2.101011,2.609650,-1.893767,0.050158,1.409088,1.781456
0.899282,-1.992445,2.605349,-1.928969,0.070541,1.416822,1.776654
0.955590,-1.883880,2.601047,-1.964171,0.090923,1.424556,1.771851
1.011898,-1.775314,2.596746,-1.999373,0.111305,1.432291,1.767048
1.068206,-1.666749,2.592445,-2.034576,0.131687,1.440025,1.762246
1.124514,-1.558183,2.588144,-2.069778,0.152069,1.447759,1.757443
1.180822,-1.449618,2.583843,-2.104980,0.172452,1.455494,1.752640
1.237130,-1.341052,2.579542,-2.140182,0.192834,1.463228,1.747838
1.293438,-1.232487,2.575241,-2.175385,0.213216,1.470962,1.743035
1.349746,-1.123921,2.570940,-2.210587,0.233598,1.478696,1.738233
1.406054,-1.015356,2.566639,-2.245789,0.253980,1.486431,1.733430
1.462362,-0.906790,2.562338,-2.280991,0.274363,1.494165,1.728627
1.518670,-0.798225,2.558037,-2.316194,0.294745,1.501899,1.723825
1.574978,-0.689659,2.553736,-2.351396,0.315127,1.509633,1.719022
1.631286,-0.581094,2.549434,-2.386598,0.335509,1.517368,1.714219
1.687594,-0.472528,2.545133,-2.421800,0.355892,1.525102,1.709417
1.743902,-0.363963,2.540832,-2.457003,0.376274,1.532836,1.704614
1.800211,-0.255397,2.536531,-2.492205,0.396656,1.540571,1.699811
1.856519,-0.146832,2.532230,-2.527407,0.417038,1.548305,1.695009
1.912827,-0.038266,2.527929,-2.562609,0.437420,1.556039,1.690206
1.969135,0.070299,2.523628,-2.597812,0.457803,1.563773,1.685404
1.990876,0.022098,2.509478,-2.493735,0.567557,1.610201,1.568886
2.012618,-0.026103,2.495328,-2.389658,0.677312,1.656629,1.452369
2.034360,-0.074304,2.481178,-2.285581,0.787067,1.703057,1.335852
2.056102,-0.122505,2.467028,-2.181504,0.896822,1.749485,1.219335
2.077843,-0.170706,2.452878,-2.077427,1.006577,1.795912,1.102818
2.099585,-0.218907,2.438728,-1.973350,1.116332,1.842340,0.986301
2.121327,-0.267109,2.424578,-1.869273,1.226086,1.888768,0.869783
2.143069,-0.315310,2.410429,-1.765196,1.335841,1.935196,0.753266
2.164810,-0.363511,2.396279,-1.661119,1.445596,1.981624,0.636749
2.186552,-0.411712,2.382129,-1.557042,1.555351,2.028051,0.520232
2.208294,-0.459913,2.367979,-1.452965,1.665106,2.074479,0.403715
2.230036,-0.508114,2.353829,-1.348888,1.774861,2.120907,0.287198
2.251777,-0.556315,2.339679,-1.244812,1.884615,2.167335,0.170680
2.273519,-0.604516,2.325529,-1.140735,1.994370,2.213762,0.054163
2.295261,-0.652717,2.311379,-1.036658,2.104125,2.260190,-0.062354
2.317002,-0.700918,2.297229,-0.932581,2.213880,2.306618,-0.178871
2.338744,-0.749119,2.283079,-0.828504,2.323635,2.353046,-0.295388
2.360486,-0.797321,2.268929,-0.724427,2.433390,2.399474,-0.411905
2.382228,-0.845522,2.254779,-0.620350,2.543144,2.445901,-0.528423
2.403969,-0.893723,2.240630,-0.516273,2.652899,2.492329,-0.644940
2.248476,-0.796077,2.230375,-0.535881,2.558146,2.478552,-0.587735
2.092982,-0.698431,2.220121,-0.555489,2.463392,2.464774,-0.530530
1.937488,-0.600785,2.209867,-0.575096,2.368638,2.450997,-0.473326
1.781995,-0.503139,2.199612,-0.594704,2.273885,2.437219,-0.416121
1.626501,-0.405494,2.189358,-0.614312,2.179131,2.423442,-0.358916
1.471007,-0.307848,2.179104,-0.633920,2.084377,2.409664,-0.301712
1.315514,-0.210202,2.168849,-0.653527,1.989624,2.395886,-0.244507
1.160020,-0.112556,2.158595,-0.673135,1.894870,2.382109,-0.187302
1.004526,-0.014910,2.148341,-0.692743,1.800116,2.368331,-0.130098
0.849033,0.082736,2.138086,-0.712351,1.705363,2.354554,-0.072893
0.693539,0.180381,2.127832,-0.731958,1.610609,2.340776,-0.015688
0.538045,0.278027,2.117578,-0.751566,1.515855,2.326999,0.041516
0.382552,0.375673,2.107323,-0.771174,1.421102,2.313221,0.098721
0.227058,0.473319,2.097069,-0.790782,1.326348,2.299444,0.155926
0.071564,0.570965,2.086815,-0.810389,1.231594,2.285666,0.213130
-0.083930,0.668611,2.076560,-0.829997,1.136841,2.271889,0.270335
-0.239423,0.766257,2.066306,-0.849605,1.042087,2.258111,0.327540
-0.394917,0.863902,2.056052,-0.869213,0.947333,2.244334,0.384744
-0.550411,0.961548,2.045798,-0.888820,0.852580,2.230556,0.441949
-0.705904,1.059194,2.035543,-0.908428,0.757826,2.216779,0.499154
-0.779537,1.079212,2.025874,-0.879195,0.685006,2.176307,0.419767
-0.853169,1.099231,2.016204,-0.849962,0.612185,2.135835,0.340381
-0.926801,1.119249,2.006534,-0.820729,0.539364,2.095363,0.260995
-1.000434,1.139267,1.996864,-0.791496,0.466544,2.054891,0.181609
-1.074066,1.159286,1.987195,-0.762262,0.393723,2.014419,0.102222
-1.147698,1.179304,1.977525,-0.733029,0.320903,1.973948,0.022836
-1.221331,1.199322,1.967855,-0.703796,0.248082,1.933476,-0.056550
-1.294963,1.219341,1.958186,-0.674563,0.175262,1.893004,-0.135936
-1.368595,1.239359,1.948516,-0.645330,0.102441,1.852532,-0.215323
-1.442227,1.259377,1.938846,-0.616097,0.029621,1.812060,-0.294709
-1.515860,1.279396,1.929177,-0.586864,-0.043200,1.771588,-0.374095
-1.589492,1.299414,1.919507,-0.557630,-0.116021,1.731117,-0.453481
-1.663124,1.319433,1.909837,-0.528397,-0.188841,1.690645,-0.532868
-1.736757,1.339451,1.900168,-0.499164,-0.261662,1.650173,-0.612254
-1.810389,1.359469,1.890498,-0.469931,-0.334482,1.609701,-0.691640
-1.884021,1.379488,1.880828,-0.440698,-0.407303,1.569229,-0.771027
-1.957654,1.399506,1.871158,-0.411465,-0.480123,1.528757,-0.850413
-2.031286,1.419524,1.861489,-0.382232,-0.552944,1.488286,-0.929799
-2.104918,1.439543,1.851819,-0.352999,-0.625765,1.447814,-1.009185
-2.178551,1.459561,1.842149,-0.323765,-0.698585,1.407342,-1.088572
-2.119609,1.372426,1.726978,-0.279048,-0.707560,1.467229,-1.158178
-2.060668,1.285291,1.611806,-0.234331,-0.716534,1.527115,-1.227784
-2.001726,1.198156,1.496635,-0.189614,-0.725509,1.587001,-1.297391
-1.942785,1.111021,1.381463,-0.144897,-0.734484,1.646888,-1.366997
-1.883843,1.023886,1.266292,-0.100179,-0.743458,1.706774,-1.436604
-1.824902,0.936750,1.151120,-0.055462,-0.752433,1.766661,-1.506210
-1.765960,0.849615,1.035948,-0.010745,-0.761408,1.826547,-1.575817
-1.707019,0.762480,0.920777,0.033972,-0.770382,1.886434,-1.645423
-1.648077,0.675345,0.805605,0.078689,-0.779357,1.946320,-1.715030
-1.589136,0.588210,0.690434,0.123406,-0.788332,2.006207,-1.784636
-1.530194,0.501075,0.575262,0.168124,-0.797306,2.066093,-1.854243
-1.471253,0.413940,0.460091,0.212841,-0.806281,2.125980,-1.923849
-1.412311,0.326805,0.344919,0.257558,-0.815256,2.185866,-1.993456
-1.353370,0.239670,0.229747,0.302275,-0.824230,2.245753,-2.063062
-1.294428,0.152535,0.114576,0.346992,-0.833205,2.305639,-2.132669
-1.235487,0.065400,-0.000596,0.391710,-0.842180,2.365526,-2.202275
-1.176545,-0.021735,-0.115767,0.436427,-0.851154,2.425412,-2.271882
-1.117604,-0.108871,-0.230939,0.481144,-0.860129,2.485299,-2.341488
-1.058662,-0.196006,-0.346111,0.525861,-0.869104,2.545185,-2.411095
-0.999721,-0.283141,-0.461282,0.570578,-0.878078,2.605072,-2.480701
-0.884508,-0.362155,-0.522924,0.469381,-0.897248,2.488140,-2.423654
-0.769295,-0.441169,-0.584566,0.368183,-0.916417,2.371207,-2.366607
-0.654081,-0.520183,-0.646207,0.266986,-0.935586,2.254275,-2.309560
-0.538868,-0.599197,-0.707849,0.165788,-0.954755,2.137342,-2.252512
-0.423655,-0.678210,-0.769491,0.064591,-0.973924,2.020410,-2.195465
-0.308442,-0.757224,-0.831133,-0.036607,-0.993093,1.903477,-2.138418
-0.193229,-0.836238,-0.892774,-0.137804,-1.012263,1.786545,-2.081371
-0.078016,-0.915252,-0.954416,-0.239002,-1.031432,1.669613,-2.024324
0.037197,-0.994266,-1.016058,-0.340199,-1.050601,1.552680,-1.967277
0.152410,-1.073280,-1.077700,-0.441397,-1.069770,1.435748,-1.910229
0.267624,-1.152294,-1.139341,-0.542594,-1.088939,1.318815,-1.853182
0.382837,-1.231308,-1.200983,-0.643792,-1.108108,1.201883,-1.796135
0.498050,-1.310322,-1.262625,-0.744989,-1.127278,1.084951,-1.739088
0.613263,-1.389336,-1.324267,-0.846187,-1.146447,0.968018,-1.682041
0.728476,-1.468350,-1.385908,-0.947384,-1.165616,0.851086,-1.624994
0.843689,-1.547364,-1.447550,-1.048582,-1.184785,0.734153,-1.567946
0.958902,-1.626378,-1.509192,-1.149779,-1.203954,0.617221,-1.510899
1.074115,-1.705392,-1.570834,-1.250977,-1.223124,0.500289,-1.453852
1.189329,-1.784406,-1.632475,-1.352174,-1.242293,0.383356,-1.396805
1.304542,-1.863420,-1.694117,-1.453372,-1.261462,0.266424,-1.339758
1.356815,-1.720249,-1.609411,-1.420703,-1.198389,0.378103,-1.233520
1.409087,-1.577078,-1.524705,-1.388035,-1.135316,0.489781,-1.127282
1.461360,-1.433907,-1.439999,-1.355366,-1.072243,0.601460,-1.021044
1.513633,-1.290736,-1.355294,-1.322698,-1.009169,0.713139,-0.914806
1.565906,-1.147565,-1.270588,-1.290029,-0.946096,0.824818,-0.808568
1.618179,-1.004394,-1.185882,-1.257360,-0.883023,0.936497,-0.702330
1.670452,-0.861223,-1.101176,-1.224692,-0.819950,1.048175,-0.596093
1.722725,-0.718052,-1.016470,-1.192023,-0.756877,1.159854,-0.489855
1.774998,-0.574881,-0.931764,-1.159355,-0.693804,1.271533,-0.383617
1.827271,-0.431710,-0.847058,-1.126686,-0.630731,1.383212,-0.277379
1.879544,-0.288539,-0.762353,-1.094017,-0.567658,1.494891,-0.171141
1.931817,-0.145368,-0.677647,-1.061349,-0.504585,1.606570,-0.064903
1.984090,-0.002197,-0.592941,-1.028680,-0.441512,1.718248,0.041335
2.036362,0.140974,-0.508235,-0.996012,-0.378439,1.829927,0.147573
2.088635,0.284145,-0.423529,-0.963343,-0.315365,1.941606,0.253811
2.140908,0.427316,-0.338823,-0.930674,-0.252292,2.053285,0.360048
2.193181,0.570487,-0.254118,-0.898006,-0.189219,2.164964,0.466286
2.245454,0.713658,-0.169412,-0.865337,-0.126146,2.276642,0.572524
2.297727,0.856829,-0.084706,-0.832669,-0.063073,2.388321,0.678762
2.350000,1.000000,0.000000,-0.800000,0.000000,2.500000,0.785000
