saahu27/vamp/solution/PDST.csv
joint_1,joint_2,joint_3,joint_4,joint_5,joint_6,joint_7
0.000000,-0.785000,0.000000,-2.356000,0.000000,1.571000,0.785000
0.000000,-0.785000,0.000000,-2.356000,0.000000,1.571000,0.785000
0.000000,-0.785000,0.000000,-2.356000,0.000000,1.571000,0.785000
0.000000,-0.785000,0.000000,-2.356000,0.000000,1.571000,0.785000
0.000000,-0.785000,0.000000,-2.356000,0.000000,1.571000,0.785000
0.000000,-0.785000,0.000000,-2.356000,0.000000,1.571000,0.785000
0.000000,-0.785000,0.000000,-2.356000,0.000000,1.571000,0.785000
0.000000,-0.785000,0.000000,-2.356000,0.000000,1.571000,0.785000
0.000000,-0.785000,0.000000,-2.356000,0.000000,1.571000,0.785000
0.000000,-0.785000,0.000000,-2.356000,0.000000,1.571000,0.785000
0.000000,-0.785000,0.000000,-2.356000,0.000000,1.571000,0.785000
0.000000,-0.785000,0.000000,-2.356000,0.000000,1.571000,0.785000
0.000000,-0.785000,0.000000,-2.356000,0.000000,1.571000,0.785000
0.000000,-0.785000,0.000000,-2.356000,0.000000,1.571000,0.785000
0.000000,-0.785000,0.000000,-2.356000,0.000000,1.571000,0.785000
0.000000,-0.785000,0.000000,-2.356000,0.000000,1.571000,0.785000
0.000000,-0.785000,0.000000,-2.356000,0.000000,1.571000,0.785000
0.000000,-0.785000,0.000000,-2.356000,0.000000,1.571000,0.785000
0.000000,-0.785000,0.000000,-2.356000,0.000000,1.571000,0.785000
0.000000,-0.785000,0.000000,-2.356000,0.000000,1.571000,0.785000
0.000000,-0.785000,0.000000,-2.356000,0.000000,1.571000,0.785000
-0.080726,-0.864348,-0.114729,-2.177407,-0.092013,1.597706,0.860236
-0.161451,-0.943695,-0.229458,-1.998813,-0.184026,1.624413,0.935472
-0.242177,-1.023043,-0.344187,-1.820220,-0.276039,1.651119,1.010709
-0.322903,-1.102390,-0.458916,-1.641627,-0.368052,1.677825,1.085945
-0.403628,-1.181738,-0.573645,-1.463034,-0.460065,1.704532,1.161181
-0.484354,-1.261085,-0.688373,-1.284440,-0.552078,1.731238,1.236417
-0.565079,-1.340433,-0.803102,-1.105847,-0.644091,1.757944,1.311654
-0.645805,-1.419780,-0.917831,-0.927254,-0.736104,1.784651,1.386890
-0.726531,-1.499128,-1.032560,-0.748660,-0.828117,1.811357,1.462126
-0.807256,-1.578475,-1.147289,-0.570067,-0.920131,1.838063,1.537362
-0.887982,-1.657823,-1.262018,-0.391474,-1.012144,1.864770,1.612598
-0.968708,-1.737171,-1.376747,-0.212881,-1.104157,1.891476,1.687835
-1.049433,-1.816518,-1.491476,-0.034287,-1.196170,1.918182,1.763071
-1.130159,-1.895866,-1.606205,0.144306,-1.288183,1.944889,1.838307
-1.210885,-1.975213,-1.720934,0.322899,-1.380196,1.971595,1.913543
-1.291610,-2.054561,-1.835663,0.501493,-1.472209,1.998301,1.988779
-1.372336,-2.133908,-1.950391,0.680086,-1.564222,2.025008,2.064016
-1.453062,-2.213256,-2.065120,0.858679,-1.656235,2.051714,2.139252
-1.533787,-2.292603,-2.179849,1.037272,-1.748248,2.078420,2.214488
-1.614513,-2.371951,-2.294578,1.215866,-1.840261,2.105127,2.289724
-1.616738,-2.341528,-2.276600,1.216152,-1.822360,2.080702,2.285665
-1.618964,-2.311104,-2.258622,1.216439,-1.804459,2.056277,2.281606
-1.621189,-2.280681,-2.240643,1.216725,-1.786558,2.031852,2.277547
-1.623415,-2.250257,-2.222665,1.217012,-1.768657,2.007427,2.273487
-1.625641,-2.219834,-2.204687,1.217299,-1.750755,1.983002,2.269428
-1.627866,-2.189411,-2.186709,1.217585,-1.732854,1.958578,2.265369
-1.630092,-2.158987,-2.168730,1.217872,-1.714953,1.934153,2.261309
-1.632317,-2.128564,-2.150752,1.218158,-1.697052,1.909728,2.257250
-1.634543,-2.098140,-2.132774,1.218445,-1.679151,1.885303,2.253191
-1.636768,-2.067717,-2.114796,1.218731,-1.661250,1.860878,2.249132
-1.638994,-2.037294,-2.096817,1.219018,-1.643349,1.836453,2.245072
-1.641220,-2.006870,-2.078839,1.219305,-1.625448,1.812028,2.241013
-1.643445,-1.976447,-2.060861,1.219591,-1.607546,1.787604,2.236954
-1.645671,-1.946023,-2.042882,1.219878,-1.589645,1.763179,2.232894
-1.647896,-1.915600,-2.024904,1.220164,-1.571744,1.738754,2.228835
-1.650122,-1.885177,-2.006926,1.220451,-1.553843,1.714329,2.224776
-1.652347,-1.854753,-1.988948,1.220737,-1.535942,1.689904,2.220717
-1.654573,-1.824330,-1.970969,1.221024,-1.518041,1.665479,2.216657
-1.656799,-1.793906,-1.952991,1.221311,-1.500140,1.641054,2.212598
-1.659024,-1.763483,-1.935013,1.221597,-1.482239,1.616630,2.208539
-1.659724,-1.757311,-1.931758,1.219085,-1.479217,1.614803,2.204929
-1.660423,-1.751140,-1.928503,1.216573,-1.476195,1.612976,2.201320
-1.661123,-1.744968,-1.925248,1.214061,-1.473173,1.611150,2.197711
-1.661822,-1.738797,-1.921993,1.211548,-1.470151,1.609323,2.194101
-1.662522,-1.732625,-1.918738,1.209036,-1.467130,1.607496,2.190492
-1.663221,-1.726454,-1.915483,1.206524,-1.464108,1.605670,2.186883
-1.663921,-1.720282,-1.912228,1.204012,-1.461086,1.603843,2.183273
-1.664620,-1.714111,-1.908973,1.201500,-1.458064,1.602017,2.179664
-1.665320,-1.707940,-1.905718,1.198988,-1.455043,1.600190,2.176055
-1.666019,-1.701768,-1.902463,1.196475,-1.452021,1.598363,2.172445
-1.666719,-1.695597,-1.899208,1.193963,-1.448999,1.596537,2.168836
-1.667418,-1.689425,-1.895953,1.191451,-1.445977,1.594710,2.165227
-1.668118,-1.683254,-1.892698,1.188939,-1.442955,1.592884,2.161617
-1.668817,-1.677082,-1.889443,1.186427,-1.439934,1.591057,2.158008
-1.669517,-1.670911,-1.886188,1.183915,-1.436912,1.589230,2.154399
-1.670216,-1.664739,-1.882933,1.181402,-1.433890,1.587404,2.150789
-1.670916,-1.658568,-1.879678,1.178890,-1.430868,1.585577,2.147180
-1.671615,-1.652396,-1.876423,1.176378,-1.427847,1.583750,2.143571
-1.672315,-1.646225,-1.873168,1.173866,-1.424825,1.581924,2.139961
-1.673014,-1.640053,-1.869913,1.171354,-1.421803,1.580097,2.136352
-1.471864,-1.508050,-1.776417,1.072786,-1.350713,1.626092,2.068785
-1.270713,-1.376048,-1.682921,0.974218,-1.279623,1.672087,2.001217
-1.069562,-1.244045,-1.589426,0.875651,-1.208533,1.718083,1.933649
-0.868412,-1.112043,-1.495930,0.777083,-1.137442,1.764078,1.866082
-0.667261,-0.980040,-1.402435,0.678515,-1.066352,1.810073,1.798514
-0.466110,-0.848037,-1.308939,0.579948,-0.995262,1.856068,1.730947
-0.264959,-0.716035,-1.215443,0.481380,-0.924172,1.902063,1.663379
-0.063809,-0.584032,-1.121948,0.382812,-0.853082,1.948058,1.595811
0.137342,-0.452029,-1.028452,0.284245,-0.781992,1.994053,1.528244
0.338493,-0.320027,-0.934956,0.185677,-0.710901,2.040049,1.460676
0.539643,-0.188024,-0.841461,0.087109,-0.639811,2.086044,1.393108
0.740794,-0.056021,-0.747965,-0.011459,-0.568721,2.132039,1.325541
0.941945,0.075981,-0.654469,-0.110026,-0.497631,2.178034,1.257973
1.143096,0.207984,-0.560974,-0.208594,-0.426541,2.224029,1.190406
1.344246,0.339987,-0.467478,-0.307162,-0.355451,2.270024,1.122838
1.545397,0.471989,-0.373983,-0.405729,-0.284361,2.316019,1.055270
1.746548,0.603992,-0.280487,-0.504297,-0.213270,2.362015,0.987703
1.947698,0.735995,-0.186991,-0.602865,-0.142180,2.408010,0.920135
2.148849,0.867997,-0.093496,-0.701432,-0.071090,2.454005,0.852568
2.350000,1.000000,0.000000,-0.800000,0.000000,2.500000,0.785000
