saahu27/vamp/solution/TRRT.csv
joint_1,joint_2,joint_3,joint_4,joint_5,joint_6,joint_7
0.000000,-0.785000,0.000000,-2.356000,0.000000,1.571000,0.785000
-0.006454,-0.773110,-0.002192,-2.353234,-0.002730,1.552798,0.770146
-0.012909,-0.761219,-0.004384,-2.350469,-0.005461,1.534595,0.755293
-0.019363,-0.749329,-0.006577,-2.347703,-0.008191,1.516393,0.740439
-0.025818,-0.737438,-0.008769,-2.344938,-0.010922,1.498190,0.725585
-0.032272,-0.725548,-0.010961,-2.342172,-0.013652,1.479988,0.710731
-0.038727,-0.713657,-0.013153,-2.339407,-0.016383,1.461785,0.695877
-0.045181,-0.701767,-0.015345,-2.336641,-0.019113,1.443583,0.681024
-0.051636,-0.689876,-0.017537,-2.333876,-0.021844,1.425380,0.666170
-0.058090,-0.677986,-0.019730,-2.331110,-0.024574,1.407178,0.651316
-0.064544,-0.666095,-0.021922,-2.328344,-0.027305,1.388976,0.636462
-0.070999,-0.654205,-0.024114,-2.325579,-0.030035,1.370773,0.621609
-0.077453,-0.642314,-0.026306,-2.322813,-0.032766,1.352571,0.606755
-0.083908,-0.630424,-0.028498,-2.320048,-0.035496,1.334368,0.591901
-0.090362,-0.618533,-0.030690,-2.317282,-0.038226,1.316166,0.577047
-0.096817,-0.606643,-0.032883,-2.314517,-0.040957,1.297963,0.562194
-0.103271,-0.594753,-0.035075,-2.311751,-0.043687,1.279761,0.547340
-0.109726,-0.582862,-0.037267,-2.308986,-0.046418,1.261558,0.532486
-0.116180,-0.570972,-0.039459,-2.306220,-0.049148,1.243356,0.517632
-0.122634,-0.559081,-0.041651,-2.303454,-0.051879,1.225154,0.502779
-0.129089,-0.547191,-0.043844,-2.300689,-0.054609,1.206951,0.487925
-0.122660,-0.533685,-0.052413,-2.283899,-0.041410,1.207534,0.489066
-0.116232,-0.520180,-0.060983,-2.267109,-0.028212,1.208117,0.490206
-0.109803,-0.506675,-0.069552,-2.250318,-0.015013,1.208700,0.491347
-0.103375,-0.493169,-0.078122,-2.233528,-0.001814,1.209283,0.492488
-0.096946,-0.479664,-0.086692,-2.216738,0.011385,1.209866,0.493629
-0.090517,-0.466159,-0.095261,-2.199948,0.024583,1.210449,0.494769
-0.084089,-0.452654,-0.103831,-2.183158,0.037782,1.211031,0.495910
-0.077660,-0.439148,-0.112400,-2.166368,0.050981,1.211614,0.497051
-0.071232,-0.425643,-0.120970,-2.149578,0.064180,1.212197,0.498192
-0.064803,-0.412138,-0.129540,-2.132787,0.077379,1.212780,0.499332
-0.058375,-0.398632,-0.138109,-2.115997,0.090577,1.213363,0.500473
-0.051946,-0.385127,-0.146679,-2.099207,0.103776,1.213946,0.501614
-0.045517,-0.371622,-0.155248,-2.082417,0.116975,1.214529,0.502754
-0.039089,-0.358116,-0.163818,-2.065627,0.130174,1.215112,0.503895
-0.032660,-0.344611,-0.172388,-2.048837,0.143372,1.215695,0.505036
-0.026232,-0.331106,-0.180957,-2.032046,0.156571,1.216278,0.506177
-0.019803,-0.317601,-0.189527,-2.015256,0.169770,1.216861,0.507317
-0.013375,-0.304095,-0.198097,-1.998466,0.182969,1.217444,0.508458
-0.006946,-0.290590,-0.206666,-1.981676,0.196168,1.218026,0.509599
-0.000517,-0.277085,-0.215236,-1.964886,0.209366,1.218609,0.510740
0.016791,-0.268044,-0.224720,-1.970096,0.201743,1.222682,0.497256
0.034099,-0.259003,-0.234204,-1.975306,0.194120,1.226754,0.483772
0.051407,-0.249963,-0.243688,-1.980516,0.186497,1.230827,0.470288
0.068715,-0.240922,-0.253172,-1.985727,0.178873,1.234899,0.456803
0.086023,-0.231881,-0.262656,-1.990937,0.171250,1.238972,0.443319
0.103331,-0.222841,-0.272140,-1.996147,0.163627,1.243044,0.429835
0.120639,-0.213800,-0.281624,-2.001357,0.156004,1.247117,0.416351
0.137947,-0.204759,-0.291108,-2.006567,0.148380,1.251189,0.402867
0.155255,-0.195719,-0.300593,-2.011778,0.140757,1.255262,0.389383
0.172563,-0.186678,-0.310077,-2.016988,0.133134,1.259334,0.375899
0.189871,-0.177637,-0.319561,-2.022198,0.125511,1.263407,0.362415
0.207179,-0.168597,-0.329045,-2.027408,0.117887,1.267479,0.348931
0.224487,-0.159556,-0.338529,-2.032618,0.110264,1.271552,0.335447
0.241795,-0.150515,-0.348013,-2.037828,0.102641,1.275624,0.321963
0.259104,-0.141475,-0.357497,-2.043039,0.095018,1.279697,0.308479
0.276412,-0.132434,-0.366981,-2.048249,0.087395,1.283769,0.294995
0.293720,-0.123393,-0.376465,-2.053459,0.079771,1.287842,0.281511
0.311028,-0.114353,-0.385949,-2.058669,0.072148,1.291914,0.268027
0.328336,-0.105312,-0.395434,-2.063879,0.064525,1.295987,0.254543
0.345644,-0.096271,-0.404918,-2.069089,0.056902,1.300059,0.241059
0.364280,-0.086078,-0.401153,-2.057290,0.056373,1.311216,0.246116
0.382915,-0.075886,-0.397388,-2.045490,0.055843,1.322372,0.251173
0.401551,-0.065693,-0.393623,-2.033691,0.055314,1.333529,0.256231
0.420187,-0.055500,-0.389858,-2.021891,0.054785,1.344686,0.261288
0.438823,-0.045307,-0.386094,-2.010092,0.054256,1.355842,0.266345
0.457459,-0.035115,-0.382329,-1.998292,0.053727,1.366999,0.271403
0.476095,-0.024922,-0.378564,-1.986493,0.053198,1.378156,0.276460
0.494730,-0.014729,-0.374799,-1.974693,0.052669,1.389312,0.281518
0.513366,-0.004536,-0.371035,-1.962893,0.052140,1.400469,0.286575
0.532002,0.005656,-0.367270,-1.951094,0.051611,1.411626,0.291632
0.550638,0.015849,-0.363505,-1.939294,0.051082,1.422782,0.296690
0.569274,0.026042,-0.359740,-1.927495,0.050553,1.433939,0.301747
0.587909,0.036235,-0.355975,-1.915695,0.050024,1.445095,0.306804
0.606545,0.046427,-0.352211,-1.903896,0.049495,1.456252,0.311862
0.625181,0.056620,-0.348446,-1.892096,0.048966,1.467409,0.316919
0.643817,0.066813,-0.344681,-1.880297,0.048437,1.478565,0.321977
0.662453,0.077006,-0.340916,-1.868497,0.047908,1.489722,0.327034
0.681088,0.087198,-0.337152,-1.856698,0.047379,1.500879,0.332091
0.699724,0.097391,-0.333387,-1.844898,0.046850,1.512035,0.337149
0.718360,0.107584,-0.329622,-1.833098,0.046321,1.523192,0.342206
0.736996,0.117776,-0.325857,-1.821299,0.045791,1.534348,0.347263
0.755632,0.127969,-0.322092,-1.809499,0.045262,1.545505,0.352321
0.774267,0.138162,-0.318328,-1.797700,0.044733,1.556662,0.357378
0.792903,0.148355,-0.314563,-1.785900,0.044204,1.567818,0.362436
0.811539,0.158547,-0.310798,-1.774101,0.043675,1.578975,0.367493
0.830175,0.168740,-0.307033,-1.762301,0.043146,1.590132,0.372550
0.848811,0.178933,-0.303268,-1.750502,0.042617,1.601288,0.377608
0.867446,0.189126,-0.299504,-1.738702,0.042088,1.612445,0.382665
0.886082,0.199318,-0.295739,-1.726902,0.041559,1.623602,0.387722
0.904718,0.209511,-0.291974,-1.715103,0.041030,1.634758,0.392780
0.923354,0.219704,-0.288209,-1.703303,0.040501,1.645915,0.397837
0.941990,0.229897,-0.284445,-1.691504,0.039972,1.657071,0.402895
0.960625,0.240089,-0.280680,-1.679704,0.039443,1.668228,0.407952
0.979261,0.250282,-0.276915,-1.667905,0.038914,1.679385,0.413009
0.997897,0.260475,-0.273150,-1.656105,0.038385,1.690541,0.418067
1.016533,0.270668,-0.269385,-1.644306,0.037856,1.701698,0.423124
1.035169,0.280860,-0.265621,-1.632506,0.037327,1.712855,0.428182
1.053804,0.291053,-0.261856,-1.620706,0.036798,1.724011,0.433239
1.072440,0.301246,-0.258091,-1.608907,0.036269,1.735168,0.438296
1.091076,0.311439,-0.254326,-1.597107,0.035740,1.746324,0.443354
1.100412,0.306836,-0.267834,-1.581111,0.022174,1.748228,0.447892
1.109748,0.302233,-0.281341,-1.565114,0.008609,1.750132,0.452430
1.119084,0.297631,-0.294849,-1.549118,-0.004956,1.752036,0.456967
1.128420,0.293028,-0.308357,-1.533122,-0.018521,1.753941,0.461505
1.137756,0.288426,-0.321864,-1.517125,-0.032086,1.755845,0.466043
1.147092,0.283823,-0.335372,-1.501129,-0.045651,1.757749,0.470581
1.156428,0.279220,-0.348879,-1.485132,-0.059216,1.759653,0.475119
1.165764,0.274618,-0.362387,-1.469136,-0.072781,1.761557,0.479657
1.175100,0.270015,-0.375895,-1.453139,-0.086346,1.763461,0.484195
1.184436,0.265413,-0.389402,-1.437143,-0.099912,1.765365,0.488733
1.193772,0.260810,-0.402910,-1.421146,-0.113477,1.767269,0.493271
1.203107,0.256207,-0.416417,-1.405150,-0.127042,1.769173,0.497809
1.212443,0.251605,-0.429925,-1.389153,-0.140607,1.771077,0.502347
1.221779,0.247002,-0.443433,-1.373157,-0.154172,1.772981,0.506885
1.231115,0.242400,-0.456940,-1.357161,-0.167737,1.774885,0.511422
1.240451,0.237797,-0.470448,-1.341164,-0.181302,1.776789,0.515960
1.249787,0.233194,-0.483955,-1.325168,-0.194867,1.778693,0.520498
1.259123,0.228592,-0.497463,-1.309171,-0.208432,1.780597,0.525036
1.268459,0.223989,-0.510971,-1.293175,-0.221997,1.782501,0.529574
1.277795,0.219387,-0.524478,-1.277178,-0.235563,1.784405,0.534112
1.295117,0.231998,-0.516005,-1.269469,-0.231757,1.795966,0.538165
1.312440,0.244610,-0.507531,-1.261760,-0.227951,1.807527,0.542219
1.329762,0.257221,-0.499058,-1.254051,-0.224145,1.819088,0.546272
1.347085,0.269832,-0.490585,-1.246341,-0.220340,1.830649,0.550325
1.364407,0.282444,-0.482111,-1.238632,-0.216534,1.842210,0.554379
1.381729,0.295055,-0.473638,-1.230923,-0.212728,1.853771,0.558432
1.399052,0.307667,-0.465164,-1.223214,-0.208923,1.865332,0.562485
1.416374,0.320278,-0.456691,-1.215504,-0.205117,1.876893,0.566539
1.433697,0.332890,-0.448218,-1.207795,-0.201311,1.888454,0.570592
1.451019,0.345501,-0.439744,-1.200086,-0.197505,1.900015,0.574645
1.468341,0.358113,-0.431271,-1.192377,-0.193700,1.911576,0.578699
1.485664,0.370724,-0.422797,-1.184668,-0.189894,1.923137,0.582752
1.502986,0.383336,-0.414324,-1.176958,-0.186088,1.934698,0.586805
1.520308,0.395947,-0.405851,-1.169249,-0.182283,1.946259,0.590858
1.537631,0.408559,-0.397377,-1.161540,-0.178477,1.957820,0.594912
1.554953,0.421170,-0.388904,-1.153831,-0.174671,1.969382,0.598965
1.572276,0.433782,-0.380430,-1.146121,-0.170865,1.980943,0.603018
1.589598,0.446393,-0.371957,-1.138412,-0.167060,1.992504,0.607072
1.606920,0.459005,-0.363484,-1.130703,-0.163254,2.004065,0.611125
1.624243,0.471616,-0.355010,-1.122994,-0.159448,2.015626,0.615178
1.641565,0.484228,-0.346537,-1.115285,-0.155643,2.027187,0.619232
1.658888,0.496839,-0.338063,-1.107575,-0.151837,2.038748,0.623285
1.676210,0.509451,-0.329590,-1.099866,-0.148031,2.050309,0.627338
1.693532,0.522062,-0.321117,-1.092157,-0.144225,2.061870,0.631392
1.710855,0.534674,-0.312643,-1.084448,-0.140420,2.073431,0.635445
1.728177,0.547285,-0.304170,-1.076738,-0.136614,2.084992,0.639498
1.745499,0.559896,-0.295697,-1.069029,-0.132808,2.096553,0.643551
1.762822,0.572508,-0.287223,-1.061320,-0.129003,2.108114,0.647605
1.780144,0.585119,-0.278750,-1.053611,-0.125197,2.119675,0.651658
1.797467,0.597731,-0.270276,-1.045902,-0.121391,2.131236,0.655711
1.814789,0.610342,-0.261803,-1.038192,-0.117585,2.142797,0.659765
1.832111,0.622954,-0.253330,-1.030483,-0.113780,2.154358,0.663818
1.849434,0.635565,-0.244856,-1.022774,-0.109974,2.165919,0.667871
1.866756,0.648177,-0.236383,-1.015065,-0.106168,2.177481,0.671925
1.884079,0.660788,-0.227909,-1.007355,-0.102363,2.189042,0.675978
1.901401,0.673400,-0.219436,-0.999646,-0.098557,2.200603,0.680031
1.918723,0.686011,-0.210963,-0.991937,-0.094751,2.212164,0.684085
1.936046,0.698623,-0.202489,-0.984228,-0.090945,2.223725,0.688138
1.953368,0.711234,-0.194016,-0.976519,-0.087140,2.235286,0.692191
1.970691,0.723846,-0.185542,-0.968809,-0.083334,2.246847,0.696244
1.988013,0.736457,-0.177069,-0.961100,-0.079528,2.258408,0.700298
2.005335,0.749069,-0.168596,-0.953391,-0.075723,2.269969,0.704351
2.022658,0.761680,-0.160122,-0.945682,-0.071917,2.281530,0.708404
2.039980,0.774292,-0.151649,-0.937972,-0.068111,2.293091,0.712458
2.057302,0.786903,-0.143175,-0.930263,-0.064305,2.304652,0.716511
2.074625,0.799515,-0.134702,-0.922554,-0.060500,2.316213,0.720564
2.091947,0.812126,-0.126229,-0.914845,-0.056694,2.327774,0.724618
2.109270,0.824738,-0.117755,-0.907136,-0.052888,2.339335,0.728671
2.126592,0.837349,-0.109282,-0.899426,-0.049083,2.350896,0.732724
2.143914,0.849960,-0.100808,-0.891717,-0.045277,2.362457,0.736778
2.161237,0.862572,-0.092335,-0.884008,-0.041471,2.374018,0.740831
2.178559,0.875183,-0.083862,-0.876299,-0.037665,2.385580,0.744884
2.195882,0.887795,-0.075388,-0.868589,-0.033860,2.397141,0.748937
2.213204,0.900406,-0.066915,-0.860880,-0.030054,2.408702,0.752991
2.230526,0.913018,-0.058442,-0.853171,-0.026248,2.420263,0.757044
2.247849,0.925629,-0.049968,-0.845462,-0.022443,2.431824,0.761097
2.265171,0.938241,-0.041495,-0.837753,-0.018637,2.443385,0.765151
2.282493,0.950852,-0.033021,-0.830043,-0.014831,2.454946,0.769204
2.299816,0.963464,-0.024548,-0.822334,-0.011025,2.466507,0.773257
2.317138,0.976075,-0.016075,-0.814625,-0.007220,2.478068,0.777311
2.318781,0.977271,-0.015271,-0.813894,-0.006859,2.479165,0.777695
2.320424,0.978468,-0.014467,-0.813162,-0.006498,2.480261,0.778080
2.322067,0.979664,-0.013663,-0.812431,-0.006137,2.481358,0.778464
2.323711,0.980860,-0.012860,-0.811700,-0.005776,2.482454,0.778849
2.325354,0.982056,-0.012056,-0.810969,-0.005415,2.483551,0.779233
2.326997,0.983253,-0.011252,-0.810237,-0.005054,2.484648,0.779617
2.328640,0.984449,-0.010448,-0.809506,-0.004693,2.485744,0.780002
2.330283,0.985645,-0.009645,-0.808775,-0.004332,2.486841,0.780386
2.331926,0.986841,-0.008841,-0.808044,-0.003971,2.487937,0.780771
2.333569,0.988038,-0.008037,-0.807312,-0.003610,2.489034,0.781155
2.335212,0.989234,-0.007234,-0.806581,-0.003249,2.490131,0.781540
2.336855,0.990430,-0.006430,-0.805850,-0.002888,2.491227,0.781924
2.338498,0.991626,-0.005626,-0.805119,-0.002527,2.492324,0.782309
2.340141,0.992823,-0.004822,-0.804387,-0.002166,2.493420,0.782693
2.341784,0.994019,-0.004019,-0.803656,-0.001805,2.494517,0.783078
2.343428,0.995215,-0.003215,-0.802925,-0.001444,2.495614,0.783462
2.345071,0.996411,-0.002411,-0.802194,-0.001083,2.496710,0.783847
2.346714,0.997608,-0.001607,-0.801462,-0.000722,2.497807,0.784231
2.348357,0.998804,-0.000804,-0.800731,-0.000361,2.498903,0.784616
2.350000,1.000000,0.000000,-0.800000,0.000000,2.500000,0.785000
